!!!!SEGMENT: pl-wtm--iii-41-976--001-010_kurpinski-karol-kazimierz--wesele-w-ojcowie-krakowiak.krn
!!!cenid: 18xx:4262
!!!COM: Kurpiński, Karol Kazimierz
!!!COM-rismID: pe30018952
!!!CDT: 1785/03/06-1857/09/18
!!!CNT: Polish
!!!GTL: Wesele w Ojcowie
!!!OTL: Krakowiak
!!!OMV: 010
!!!PDT:
!!!AGN:
!!!YEC: Copyright 2022 Narodowy Instytut Fryderyka Chopina (https://polishscores.org)
!!!YEM: License CC-BY-4.0 (https://creativecommons.org/licenses/by/4.0)
!!!SMS-siglum: PL-Wtm
!!!SMS-shelfmark: III.41.976
!!!SMS-shelfwork: 001-010 G
!!!SMS-variant:
!!!SMS-altvar:
!!!NIFC-rismSourceID: 1001130735
!!!NIFC-rismChildID: 1001130735
!!!NIFC-islandoraID: pl-wtm:23143
!!!URL-pdf-islandora: https://repozytorium.nifc.pl/islandora/object/pl-wtm:23143/datastream/PDF/view
!!!URL-scan: https://polish.musicsources.pl/pl/lokalizacje/galeria/druki-muzyczne/17811/9 @EN{Scan on Polish Music Sources Website} @PL{Skany w portalu Dziedzictwo Muzyki Polskiej w otwartym dostępie}
!!!IIIF:
!!!ONB-nifc: UWAGA: skany 9-10
!!!AIN: 2 piano
!!!key: C
**kern	**kern	**dynam
*part2	*part1	*
*staff2	*staff1	*
*I"[Piano]	*I"[Piano]	*
*I'pf	*I'pf	*
*ICklav	*ICklav	*
*Ipiano	*Ipiano	*
*>[A,A1,A,A2,B]	*>[A,A1,A,A2,B]	*>[A,A1,A,A2,B]
*>A	*>A	*>A
*clefF4	*clefG2	*
*k[]	*k[]	*
*C:	*C:	*
*M2/4	*M2/4	*
16C\ 16E 16G 16c	16cc\ 16ee 16gg 16ccc	f
=1	=1	=1
2C\ 2E 2G 2c	2cc\ 2ee 2gg 2ccc	.
=2!|:	=2!|:	=2!|:
!	!	!LO:DY:a
.	8qff/	p
*^	*	*
8r	2C\	8.ee\L	.
8E/L 8G 8c	.	.	.
!	!	!LO:TX:a:B:t=grazioso	!
.	.	16dd#X\K	.
8E/ 8G 8c	.	8ee\	.
8E/J 8G 8c	.	8cc\J	.
=3	=3	=3	=3
.	.	8qff/	.
8r	2C\	8.ee\L	.
8E/L 8G 8c	.	.	.
.	.	16dd#X\K	.
8E/ 8G 8c	.	8ee\	.
8E/J 8G 8c	.	8cc\J	.
=4	=4	=4	=4
8r	2C\	(8dd'\L	.
8F/L 8G 8B	.	8ee'\	.
8F/ 8G 8B	.	8ff'\	.
8F/J 8G 8B	.	8gg'\J)	.
!!LO:LB:g=original	!	!	!
=5	=5	=5	=5
8r	4C\	(8ee'\	.
8E/ 8G 8c	.	4gg^\	.
8r	4C\	.	.
8F/ 8G 8B	.	16ff\LL	.
.	.	16dd\JJ)	.
=6	=6	=6	=6
.	.	8qff/	.
8r	2C\	8.ee\L	.
8E/L 8G 8c	.	.	.
.	.	16dd#X\K	.
8E/ 8G 8c	.	8ee\	.
8E/J 8G 8c	.	8cc\J	.
=7	=7	=7	=7
.	.	8qff/	.
8r	2C\	8.ee\L	.
8E/L 8G 8c	.	.	.
.	.	16dd#X\K	.
8E/ 8G 8c	.	8ee\	.
8E/J 8G 8c	.	8cc\J	.
*v	*v	*	*
=8	=8	=8
8GG\L	(8dd\L	<
8F\J 8G 8B	8aa\	.
8BB\L	8gg\	.
8F\J 8G 8d	8b\J)	.
=9	=9	=9
8C\ 8E 8G 8c	8cc\	.
8r	8r	.
4CC/ 4C	4e/ 4g 4cc	sf
!!LO:LB:g=original	!	!
=10:|!	=10:|!	=10:|!
8C\L	8.ff\L 8.aa	f
8A\ 8c 8f	.	.
.	16ee\K 16gg#X	.
8A\ 8c 8f	8ff\ 8aa	.
8A\J 8c 8f	8dd\J 8ff	.
=11	=11	=11
8C\L	8ee|\ 8gg	.
8G\ 8c 8e	(4cc^^\ 4ee	.
8G\ 8c 8e	.	.
8G\J 8c 8e	16dd\LL	.
.	16cc\JJ)	.
=12	=12	=12
8GG\L	(16b\LL	.
.	16cc\	.
8F\ 8G 8B	16dd\	.
.	16ee\JJ	.
8F\ 8G 8B	16ff\LL	.
.	16gg\	.
8F\J 8G 8B	16aa\	.
.	16gg\JJ)	.
=13	=13	=13
8C\L	8ee|\	.
8E\ 8G 8c	(4cc^^\ 4ee 4ccc	.
8E\ 8G 8c	.	.
8E\J 8G 8c	16gg\LL	.
.	16ee\JJ)	.
=14	=14	=14
8C\L	8.ff\L 8.aa	.
8A\ 8c 8f	.	.
.	16ee\K 16gg#X	.
8A\ 8c 8f	8ff\ 8aa	.
8A\J 8c 8f	8dd\J 8ff	.
=15	=15	=15
8C\L	8ee|\ 8gg	.
8G\ 8c 8e	(4cc^^\ 4ee	.
8G\ 8c 8e	.	.
8G\J 8c 8e	16dd\LL	.
.	16cc\JJ)	.
!!LO:PB:g=original	!	!
=16	=16	=16
8GG\L	(16b\LL	.
.	16cc\	.
8F\ 8G 8B	16dd\	.
.	16ee\JJ	.
8F\ 8G 8B	16ff\LL	.
.	16gg\	.
8F\J 8G 8B	16aa\	.
.	16ff\JJ)	.
=17	=17	=17
8C\L 8E 8G 8c	8cc\L	.
8C\J 8E 8G 8c	8ccc\J	.
4C\ 4E 4G 4c	4cc\	.
=18:|!|:	=18:|!|:	=18:|!|:
8G'\L 8B 8f	8dd'\L 8ff	pp
8G'\ 8B 8f	8dd'\J 8ff	.
8G'\ 8B 8f	8ff^\L 8aa	.
8G'\J 8B 8f	(16ee\L 16gg	.
.	16dd\JJ) 16ff	.
=19	=19	=19
8G'\L 8c 8e	8cc'\ 8ee	.
8G'\ 8c 8e	4cc^^\ 4ee	.
8G'\ 8c 8e	.	.
8G'\J 8c 8e	8cc\ 8ee	.
=20	=20	=20
8F'\L 8G 8B 8d	(16dd\LL	.
.	16ee\	.
8F'\ 8G 8B 8d	16ff\	.
.	16ee\JJ	.
8F'\ 8G 8B 8d	16gg\LL	.
.	16ff\	.
8F'\J 8G 8B 8d	16ee\	.
.	16dd\JJ)	.
!!LO:LB:g=original	!	!
=21	=21	=21
8E'\L 8G 8c	8cc\	.
8GG^\ 8G	4g^^\ 4ee	.
8EE^\ 8E	.	.
8CC^\J 8C	8e\ 8cc	.
=22	=22	=22
8GG\L	8dd'\L 8ff	p
8F\J 8G 8B	8dd'\J 8ff	.
8BB\L	8ff^\L 8aa	.
8F\J 8G 8B	(16ee\L 16gg	.
.	16dd\JJ) 16ff	.
=23	=23	=23
8C\L	8cc|\ 8ee	.
8E\ 8G 8c	(4ee^^\ 4ccc	.
8E\ 8G 8c	.	.
8E\J 8G 8c	8cc\) 8ee	.
=24	=24	=24
*^	*	*
!LO:N:vis=2	!	!	!
8G\L	2G/	8dd\L	.
8d\ 8f	.	8aa\	.
8d\ 8f	.	8gg\	.
8d\J 8f	.	8b\J	.
*v	*v	*	*
=25	=25	=25
4c\ 4e	4cc\	.
8CC/ 8C	8c\ 8e 8g 8cc	.
8r	8r	.
=26:|!|:	=26:|!|:	=26:|!|:
*k[b-]	*k[b-]	*
8F'\L 8A 8c	(16f/LL	f
.	16g/	.
8F'\ 8A 8c	16a/	.
.	16b-/JJ)	.
8F'\ 8A 8c	8cc'\L	.
8F'\J 8G#X 8B#X	8dd'\J	.
!!LO:LB:g=original	!	!
=27	=27	=27
8F'\L 8G#X 8d	8bn\	.
8F'\ 8A 8c	4cc^\	.
8F'\ 8A 8c	.	.
8F'\J 8A 8c	8a/	.
=28	=28	=28
8F'\L 8A 8c	(16f\LL	.
.	16g\	.
8F'\ 8A 8c	16a\	.
.	16b-\JJ)	.
8F'\ 8A 8c	8cc'\L	.
8F'\J 8G#X 8Bn	8dd'\J	.
=29	=29	=29
8F'\L 8G#X 8d	8bn'\	.
8F'\ 8A 8c	4cc^\	.
8F'\ 8A 8c	.	.
8F'\J 8A 8c	8a/	.
=30	=30	=30
*^	*	*
8r	2C\	8g`/	.
8c/L	.	4e^/ 4b-	.
8c/	.	.	.
8c/J	.	8e/ 8g	.
=31	=31	=31	=31
8r	2F\	(16f/LL	.
.	.	16g/	.
8A/L 8c	.	16a/	.
.	.	16b-/JJ)	.
8A/ 8c	.	(16cc\LL	.
.	.	16bn\	.
8A/J 8c	.	16dd\	.
.	.	16cc\JJ)	.
!!LO:LB:g=original	!	!	!
=32	=32	=32	=32
*	*	*^	*
8r	2C\	8g`/	8ryy	.
16c/LL	.	4e^/ 4b-	4ryy	.
16c/JJ	.	.	.	.
8c^</L	.	.	.	.
(<16B-/L	.	16g/LL	8e\	.
16c/JJ)	.	(<16a/JJ	.	.
*v	*v	*	*	*
*	*v	*v	*
=33	=33	=33
8F\ 8A	8f/)	.
8r	8r	.
4FF\ 4F	4f\ 4a 4ff	.
=34:|!|:	=34:|!|:	=34:|!|:
8C\L	(8.gg^\L	.
8B-\ 8c 8e	.	.
.	16ff\Jk)	.
8B-\ 8c 8e	(16ff\LL	.
.	16ee\	.
8B-\J 8c 8e	16dd\	.
.	16cc\JJ)	.
=35	=35	=35
8C\L	(16bn\LL	.
.	16cc\	.
8B-\ 8c 8e	16dd\	.
.	16cc\JJ	.
8B-\ 8c 8e	16bn\LL	.
.	16cc\	.
8G\J 8B- 8c	16dd\	.
.	16ee\JJ)	.
=36	=36	=36
8F\ 8A 8c	8ff'\	.
8r	8r	.
4FF^^\ 4F	4a^^\ 4cc 4ff	.
!!LO:LB:g=original	!	!
=37	=37	=37
!	!LO:N:vis=4	!
8F\L	8aa'\	.
8A\ 8c 8f	(4cc^\ 4ccc	.
8A\J 8c 8f	.	.
8r	16bb-\LL	.
.	16aa\JJ)	.
=38	=38	=38
!	!LO:TX:t=P:problem: akcent słaby dopisany ołówkiem	!
8C\L	(8.gg^\L	.
8B-\ 8c 8e	.	.
.	16ff\Jk)	.
8B-\ 8c 8e	(16ff\LL	.
.	16ee\	.
8B-\J 8c 8e	16dd\	.
.	16cc\JJ)	.
=39	=39	=39
8C\L	(16bn\LL	.
.	16cc\	.
8B-\ 8c 8e	16dd\	.
.	16cc\JJ	.
8B-\ 8c 8e	16bn\LL	.
.	16cc\	.
8G\J 8B- 8c 8e	16dd\	.
.	16ee\JJ)	.
=40	=40	=40
8F\L	(16ff\LL	<
.	16gg\	.
8A\J 8c	16aa\	.
.	16bb-\JJ	.
8C\L	16ccc\LL	[ >
.	16aa\	.
8G\J 8B- 8c	16bb-\	.
.	16gg\JJ)	]]
=41	=41	=41
8F\L 8A 8c	8ff\L	.
8F\ 8A 8c	8aa\J	.
8F\J 8A 8c	4ff\	.
8r	.	.
!!LO:PB:g=original	!	!
=42:|!	=42:|!	=42:|!
*^	*	*
!	!	!LO:TX:i:b:t=dolce	!
!	!	!LO:TX:a:t=N|o Andantino.:color=blue:note=podkreślone na niebiesko	!
!	!	!LO:TX:t=P:problem: notatka dopisana niebieską kredką	!
8r	2DD\ 2D	4.a\ 4.aa	p
8F/L 8A 8d	.	.	.
8F/ 8A 8d	.	.	.
8F/J 8A 8d	.	8a\ 8aa	.
=43	=43	=43	=43
8r	2D\	8.b-\L 8.bb-	.
8G/L 8A 8c#X	.	.	.
.	.	16a\Jk 16aa	.
8G/ 8A 8c#	.	8g\L 8gg	.
8G/J 8A 8c#	.	16f\L 16ff	.
.	.	16e\JJ 16ee	.
=44	=44	=44	=44
8r	4D\	8.d\L 8.dd	.
8F/ 8A 8d	.	.	.
.	.	16ff\	.
8r	4F\	8.a\ 8.aa	.
8A/ 8d	.	.	.
.	.	16ff\Jk	.
*v	*v	*	*
=45	=45	=45
8AA\L	(16e\LL 16ee	.
.	16cc#X\JJ)	.
8G\ 8A 8c#X	4a/	.
8G\ 8A 8c#	.	.
8G\J 8A 8c#	8a/	.
=46	=46	=46
*^	*	*
8r	2DD\ 2D	4.a\ 4.aa	.
8F/L 8A 8d	.	.	.
8F/ 8A 8d	.	.	.
8F/J 8A 8d	.	8a\ 8aa	.
=47	=47	=47	=47
8r	2D\	8.b-\L 8.bb-	.
8G/L 8A 8c#X	.	.	.
.	.	16a\Jk 16aa	.
8G/ 8A 8c#	.	8g\L 8gg	.
8G/J 8A 8c#	.	16f\L 16ff	.
.	.	16e\JJ 16ee	.
!!LO:LB:g=original	!	!	!
=48	=48	=48	=48
8r	4D\	8.d\L 8.dd	.
8F/ 8A 8d	.	.	.
.	.	16ff\K	.
8r	4F\	8.a\ 8.aa	.
8A/ 8d	.	.	.
.	.	16ff\Jk	.
*v	*v	*	*
=49	=49	=49
8AA\L	(16e\LL 16ee	.
.	16cc#X\JJ)	.
8G\ 8A 8c#X	4a/	.
8G\ 8A 8c#	.	.
8G\J 8A 8c#	8a/	.
=50	=50	=50
8AA\L	8a\	.
8G\J 8A 8c#X	4cc#X\	.
8C#X\L	.	.
8G\J 8A 8c#	8ee\	.
=51	=51	=51
8D\L	16dd\LL	.
.	16cc#X\	.
8F\J 8A 8d	16dd\	.
.	16ee\JJ	.
8AA\L	8ff\L	.
8F\J 8A 8d	8a\J	.
=52	=52	=52
8D\L	8dd\L	.
8F\J 8A 8d	8ff\	.
8F\L	8a\ 8aa	.
8A\J 8d	8ff\J	.
=53	=53	=53
8AA\L	(16ee\LL	.
.	16cc#X\JJ)	.
8G\ 8A 8c#X	4a/	.
8G\ 8A 8c#	.	.
8G\J 8A 8c#	8a/	.
!!LO:LB:g=original	!	!
=54	=54	=54
8AA\L	8a\	.
8G\J 8A 8c#X	4cc#X^\	.
8C#X\L	.	.
8G\J 8A 8c#	8ee\	.
=55	=55	=55
8D\L	16dd\LL	.
.	16cc#X\	.
8F\J 8A 8d	16dd\	.
.	16ee\JJ	.
8AA\L	8ff\L	.
8F\J 8A 8d	8a\J	.
=56	=56	=56
8D\L	8dd\L	.
8F\J 8A 8d	8ff\	.
8F\L	8a\ 8aa	.
8A\J 8d	8ff\J	.
=57	=57	=57
8AA\L	(16ee\LL	.
.	16cc#X\JJ)	.
8G\ 8A 8c#X	4a^\	.
8G\J 8A 8c#	.	.
8r	8a\	.
=58!|:	=58!|:	=58!|:
!	!LO:TX:a:B:t=Majore.	!
8D\L 8F#X 8A 8d	4.a\ 4.aa	f
8D\ 8F# 8A 8d	.	.
8D\ 8F# 8A 8d	.	.
8D\J 8F# 8A 8d	8a\ 8aa	.
=59	=59	=59
8D\L 8G 8A 8c#X	8.bn\L 8.bbn	.
8D\ 8G 8A 8c#	.	.
.	16a\Jk 16aa	.
8D\ 8G 8A 8c#	8g\L 8gg	.
8D\J 8G 8A 8c#	16f#X\L 16ff#X	.
.	16e\JJ 16ee	.
!!LO:LB:g=original	!	!
=60	=60	=60
8D\L 8F#X 8A	8.d\L 8.dd	.
8D\ 8F# 8A 8d	.	.
.	16ff#X\K	.
8D\ 8F# 8A 8d	8a\ 8aa	.
8D\J 8F# 8A 8d	8ff#\J	.
=61	=61	=61
8AA\L 8C#X 8E 8A	16ee\LL	.
.	16cc#X\JJ	.
8AA\ 8C# 8E 8A	4a^/	.
8AA\ 8C# 8E 8A	.	.
8AA\J 8C# 8E 8A	8a/	.
=62:|!|:	=62:|!|:	=62:|!|:
8AA\L	8a\	p
8G\ 8A 8c#X	(4cc#X^\	.
8AA\	.	.
8G\J 8A 8c#	8ee\)	.
=63	=63	=63
8D\L	16dd\LL	.
.	16cc#X\	.
8F#X\ 8A 8d	16dd\	.
.	16ff#X\JJ	.
8D\	(8.aa^\L	.
8F#\J 8A 8d	.	.
.	16ff#\Jk)	.
=64	=64	=64
8DD\L 8D	8.dd\L	.
8F#X\J 8A 8d	.	.
.	16ff#X\Jk	.
8D\L	8.a\L 8.aa	.
8F#\J 8A 8d	.	.
.	16ff#\Jk	.
=65	=65	=65
8AA\L	(16ee\LL	.
.	16cc#X\JJ)	.
8G\ 8A 8c#X	4a^/	.
8G\J 8A 8c#	.	.
8r	8a/	.
!!LO:LB:g=original	!	!
*kcancel	*kcancel	*
=66:|!	=66:|!	=66:|!
*k[f#]	*k[f#]	*
*^	*	*
8r	2D\	8a'\	f
8F#/L 8A 8c	.	(4ccn^\	.
8F#/ 8A 8c	.	.	.
8F#/J 8A 8c	.	8ee\)	.
=67	=67	=67	=67
8r	2D\	8dd'\L	.
8G/L 8B	.	(16gg'\L	.
.	.	16ff#'\JJ	.
8G/ 8B	.	16ee'\LL	.
.	.	16dd'\	.
8G/J 8B	.	16cc'\	.
.	.	16b'\JJ)	.
=68	=68	=68	=68
8r	2D\	(16dd\LL	.
.	.	16cc#X\JJ)	.
8F#/L 8A 8c	.	(4ccn^\	.
8F#/ 8A 8c	.	.	.
8F#/J 8A 8c	.	8a\)	.
=69	=69	=69	=69
8r	2D\	(16g/LL	.
.	.	16a/JJ)	.
8G/L 8B	.	(>4b^/	.
8G/ 8B	.	.	.
8G/J 8B	.	8g/)	.
=70	=70	=70	=70
8r	2D\	8a'\	.
8F#/L 8A 8c	.	(4cc^\	.
8F#/ 8A 8c	.	.	.
8F#/J 8A 8c	.	8ee\)	.
=71	=71	=71	=71
8r	2D\	8dd'\L	.
8G/L 8B	.	(16gg'\L	.
.	.	16ffny'\JJ	.
8G/ 8B	.	16ee'\LL	.
.	.	16dd'\	.
8G/J 8B	.	16cc'\	.
.	.	16b'\JJ)	.
=72	=72	=72	=72
8r	2D\	(16a\LL	.
.	.	16b\	.
8Fny/L 8A 8c	.	16cc\	.
.	.	16dd\JJ)	.
8F/ 8A 8c	.	8ee'\L	.
8F/J 8A 8c	.	8dd'\J	.
!!LO:LB:g=original	!	!	!
=73	=73	=73	=73
4B/	4G\	4g/	.
8D\L 8d	4ryy	8g\L 8b	<
8BB\J 8B	.	8g\J 8dd	.
*v	*v	*	*
=74	=74	=74
2GG;\ 2G	2g;\ 2b 2dd 2ffn	[[
*kcancel	*kcancel	*
=75!|:	=75!|:	=75!|:
*k[]	*k[]	*
!	!LO:TX:a:B:t=grazioso	!
.	8qff/	p
*^	*	*
8r	2C\	8.ee\L	.
8E/L 8G 8c	.	.	.
.	.	16dd#X\K	.
8E/ 8G 8c	.	8ee\	.
8E/J 8G 8c	.	8cc\J	.
=76	=76	=76	=76
.	.	8qff/	.
8r	2C\	8.ee\L	.
8E/L 8G 8c	.	.	.
.	.	16dd#X\K	.
8E/ 8G 8c	.	8ee\	.
8E/J 8G 8c	.	8cc\J	.
=77	=77	=77	=77
8r	2C\	(8dd'\L	.
8F/L 8G 8B	.	8ee'\	.
8F/ 8G 8B	.	8ff'\	.
8F/J 8G 8B	.	8gg'\J)	.
=78	=78	=78	=78
8r	4C\	8ee'\	.
8E/ 8G 8c	.	4gg^\	.
8r	4C\	.	.
8F/ 8G 8B	.	16ff\LL	.
.	.	16dd\JJ	.
=79	=79	=79	=79
8r	2C\	8.ee\L	.
8E/L 8G 8c	.	.	.
.	.	16dd#X\K	.
8E/ 8G 8c	.	8ee\	.
8E/J 8G 8c	.	8cc\J	.
!!LO:PB:g=original	!	!	!
=80	=80	=80	=80
.	.	(8qff/	.
8r	2C\	8.ee\L)	.
8E/L 8G 8c	.	.	.
.	.	16dd#X\K	.
8E/ 8G 8c	.	8ee\	.
8E/J 8G 8c	.	8cc\J	.
*v	*v	*	*
=81	=81	=81
8GG\L	8dd\L	<
8F\J 8G 8B	8aa\	.
8BB\L	8gg\	.
8F\J 8G 8d	8b\J	.
=82	=82	=82
8E\ 8G 8c	8cc\	.
8r	8r	.
4C\ 4E 4G 4c	4e\ 4g 4cc	sf
=83||	=83||	=83||
8C\L	8.ff\L 8.aa	f
8A\ 8c 8f	.	.
.	16ee\K 16gg#X	.
8A\ 8c 8f	8ff\ 8aa	.
8A\J 8c 8f	8dd\J 8ff	.
=84	=84	=84
8C\L	8ee'\ 8gg	.
8G\ 8c 8e	4cc^^\ 4ee	.
8G\ 8c 8e	.	.
8G\J 8c 8e	16dd\LL	.
.	16cc\JJ	.
=85	=85	=85
8GG\L	(16b\LL	.
.	16cc\	.
8F\ 8G 8B	16dd\	.
.	16ee\JJ	.
8F\ 8G 8B	16ff\LL	.
.	16gg\	.
8F\J 8G 8B	16aa\	.
.	16gg\JJ)	.
!!LO:LB:g=original	!	!
=86	=86	=86
8C\L	8ee|\	.
8E\ 8G 8c	4cc^^\ 4ee 4ccc	.
8E\ 8G 8c	.	.
8E\J 8G 8c	16gg\LL	.
.	16ee\JJ	.
=87	=87	=87
8C\L	8.ff\L 8.aa	.
8A\ 8c 8f	.	.
.	16ee\K 16gg#X	.
8A\ 8c 8f	8ff\ 8aa	.
8A\J 8c 8f	8dd\J 8ff	.
=88	=88	=88
8C\L	8ee\ 8gg	.
8G\ 8c 8e	4cc^^\ 4ee	.
8G\ 8c 8e	.	.
8G\J 8c 8e	16dd\LL	.
.	16cc\JJ	.
=89	=89	=89
8GG\L	(16b\LL	.
.	16cc\	.
8F\ 8G 8B	16dd\	.
.	16ee\JJ	.
8F\ 8G 8B	16ff\LL	.
.	16gg\	.
8F\J 8G 8B	16aa\	.
.	16ff\JJ)	.
=90	=90	=90
8C\L 8E 8G 8c	8cc\L	.
8C\J 8E 8G 8c	8ccc\J	.
4C\ 4E 4G 4c	4cc\	.
=91||	=91||	=91||
!	!LO:TX:a:B:t=CODA	!
.	(8qd/	p
16CC/LL	8.c/L)	.
16C/	.	.
16CC/	.	.
16C/JJ	16B/K	.
16CC/LL	8c/	.
16C/	.	.
16CC/	8G/J	.
16C/JJ	.	.
!!LO:LB:g=original	!	!
=92	=92	=92
.	8qd/	.
16CC/LL	8.c/L	.
16C/	.	.
16CC/	.	.
16C/JJ	16B/Jk	.
16CC/LL	8c/L	.
16C/	.	.
16CC/	8G/J	.
16C/JJ	.	.
=93	=93	=93
16CC/LL	8.c/L 8.e	.
16C/	.	.
16CC/	.	.
16C/JJ	16B/K 16d	.
16CC/LL	8c/ 8e	.
16C/	.	.
16CC/	8G/J	.
16C/JJ	.	.
=94	=94	=94
.	8qd/ 8qf	.
16CC/LL	8.c/L 8.e	.
16C/	.	.
16CC/	.	.
16C/JJ	16B/K 16d	.
16CC/LL	8c/ 8e	.
16C/	.	.
16CC/	8G/J	.
16C/JJ	.	.
=95	=95	=95
!	!LO:TX:b:t=cres_cen_do:dur=12e4s:ext=ud:problem:text with extention lines	!
16CC/LL	8.e/L 8.g	<
16C/	.	.
16CC/	.	.
16C/JJ	16d#X/K 16f#X	.
16CC/LL	8e/ 8g	.
16C/	.	.
16CC/	8c/J 8e	.
16C/JJ	.	.
=96	=96	=96
.	8qf/ 8qa	.
16CC/LL	8.e/L 8.g	.
16C/	.	.
16CC/	.	.
16C/JJ	16d#X/K 16f#X	.
16CC/LL	8e/ 8g	.
16C/	.	.
16CC/	8c/J 8e	.
16C/JJ	.	.
=97	=97	=97
.	8qqdd/	.
16CC/LL	8.e\L 8.g 8.cc	.
16C/	.	.
16CC/	.	.
16C/JJ	16d\K 16b	.
16CC/LL	8e\ 8cc	.
16C/	.	.
16CC/	8e\J 8g	.
16C/JJ	.	.
!!LO:LB:g=original	!	!
=98	=98	=98
.	8qdd/	.
16CC/LL	8.e/L 8.g 8.cc	.
16C/	.	.
16CC/	.	.
16C/JJ	16d/K 16b	.
16CC/LL	8e/ 8cc	.
16C/	.	.
16CC/	8e/J 8g	[[
16C/JJ	.	.
=99	=99	=99
.	8qff/	.
16CC/LL	8.g\L 8.cc 8.ee	.
16C/	.	.
16CC/	.	.
16C/JJ	16f#X\K 16dd#X	.
16CC/LL	8g\ 8ee	.
16C/	.	.
16CC/	8e\J 8cc	.
16C/JJ	.	.
=100	=100	=100
.	8qff/	.
16CC/LL	8.g\L 8.cc 8.ee	.
16C/	.	.
16CC/	.	.
16C/JJ	16f#X\K 16dd#X	.
16CC/LL	8g\ 8ee	.
16C/	.	.
16CC/	8e\J 8cc	.
16C/JJ	.	.
=101	=101	=101
8qCC/	.	.
8C\L	16cc\LL 16ee 16gg	ff
.	16g\	.
16E\L	16cc\ 16ee 16gg	.
16G\JJ	16g\JJ	.
8c\L	16cc\LL 16ee 16gg	.
.	16g\	.
8C\J 8c	16cc\ 16ee 16gg	.
.	16g\JJ	.
=102	=102	=102
8FF/L	16dd\LL 16ff	.
.	16a\	.
16AA/L	16dd\ 16ff	.
16D/JJ	16a\JJ	.
8F\L	16dd\LL 16ff	.
.	16a\	.
8F\J	16dd\ 16ff	.
.	16a\JJ	.
=103	=103	=103
8GG/L	16cc\LL 16ee	.
.	16g\	.
16C/L	16cc\ 16ee	.
16E/JJ	16g\JJ	.
8G\L	16cc\LL 16ee	.
.	16g\	.
8G\J	16cc\ 16ee	.
.	16g\JJ	.
!!LO:LB:g=original	!	!
=104	=104	=104
8GG/L	16g\LL 16dd	.
.	16f\	.
16BB/L	16g\ 16dd	.
16D/JJ	16f\JJ	.
8G\L	16g\LL 16dd	.
.	16f\	.
8G\J	16g\ 16dd	.
.	16f\JJ	.
=105	=105	=105
*>A1	*>A1	*>A1
16CC/LL	16e\ 16cc	.
16C/	8r	.
16CC/	.	.
16C/JJ	16B/	.
16CC/LL	8c/L	.
16C/	.	.
16CC/	8G/J	.
16C/JJ	.	.
=106:|!	=106:|!	=106:|!
*>A2	*>A2	*>A2
4C/	4e\ 4cc	.
4r	(16cc\LL 16ee	p
.	16b\ 16dd	.
.	16cc\ 16ee	.
.	16dd\JJ 16ff	.
=107	=107	=107
*>B	*>B	*>B
8r	8ee'\) 8gg	f
8GG\L 8G	8dd\L 8ff 8gg 8bb	.
8GG\ 8G	8dd\ 8ff 8gg 8bb	.
8GG\J 8G	8dd\J 8ff 8gg 8bb	.
=108	=108	=108
8C\ 8c	8cc\ 8ee 8gg 8ccc	.
8r	8r	.
4r	(16cc\LL 16ee	p
.	16b\ 16dd	.
.	16cc\ 16ee	.
.	16dd\JJ 16ff	.
=109	=109	=109
8r	8ee'\) 8gg	.
8GG\L 8G	8dd\L 8ff 8gg 8bb	f
8GG\ 8G	8dd\ 8ff 8gg 8bb	.
8GG\J 8G	8dd\J 8ff 8gg 8bb	.
!!LO:LB:g=original	!	!
=110	=110	=110
8CC/L 8C	4cc\ 4ee 4gg 4ccc	.
16CC/L 16GG	.	.
16C/JJ	.	.
16CC/LL 16GG	(16eee\LL	.
16C/	16ccc\	.
16CC/ 16GG	16gg\	.
16C/JJ	16ee\JJ)	.
=111	=111	=111
16CC/LL 16GG	(16ccc\LL	.
16C/	16gg\	.
16CC/ 16GG	16ee\	.
16C/JJ	16cc\JJ)	.
16CC/LL 16GG	(16gg\LL	.
16C/	16ee\	.
16CC/ 16GG	16cc\	.
16C/JJ	16g\JJ)	.
=112	=112	=112
16CC/LL 16GG	(16ee\LL	.
16C/	16cc\	.
16CC/ 16GG	16g\	.
16C/JJ	16e\JJ)	.
16CC/LL 16GG	(16cc\LL	.
16C/	16g\	.
16CC/ 16GG	16e\	.
16C/JJ	16g\JJ)	.
=113	=113	=113
4CC/ 4GG	4c/	.
4CC/ 4GG	4c/	.
=114	=114	=114
4CC/ 4GG	4c/	.
8.r	8.r	.
16C\ 16E 16G 16c	16ee\ 16gg 16ccc 16eee	.
=115	=115	=115
4C\ 4E 4G 4c	4ee\ 4gg 4ccc 4eee	.
8.r	8.r	.
16CC/ 16C	16c/	.
=116	=116	=116
4CC/ 4C	4c/	.
4r	4r	.
==	==	==
*-	*-	*-
!!!system-decoration: {(s1,s2)}
!!!RDF**kern: > = above
!!!RDF**kern: < = below
!!!RDF**kern: N = linked
!!!RDF**kern: | = vertical stroke
!!!ENC: Berenika Jozajtis
!!!END: 2022-11-27
!!!ENC: Natalia Wrzos
!!!END: 2022-12-06
